icons/phone.svg

<svg width="49" height="49" viewBox="0 0 49 49" fill="none" xmlns="http://www.w3.org/2000/svg">
<rect y="0.265106" width="48.0537" height="48.0537" rx="24.0268" fill="#DBDBDB"/>
<path d="M34.5338 36.3054C21.723 36.3234 11.9997 26.4844 12.0132 13.7847C12.0132 12.9543 12.6859 12.2785 13.5149 12.2785H17.4793C18.2226 12.2785 18.8548 12.8251 18.9645 13.561C19.2259 15.3255 19.7392 17.0434 20.4887 18.6622L20.6433 18.9955C20.7472 19.2199 20.7696 19.4734 20.7065 19.7125C20.6435 19.9515 20.499 20.1611 20.2979 20.305C19.0696 21.182 18.6011 22.9464 19.5576 24.322C20.7619 26.0539 22.2651 27.5575 23.9966 28.7624C25.3736 29.7175 27.1381 29.249 28.0136 28.0221C28.1573 27.8205 28.3671 27.6754 28.6064 27.6121C28.8458 27.5488 29.0999 27.5711 29.3245 27.6752L29.6564 27.8284C31.2752 28.5792 32.9931 29.0928 34.7576 29.3541C35.4934 29.4637 36.04 30.0959 36.04 30.8408V34.8037C36.04 35.001 36.0011 35.1964 35.9256 35.3787C35.85 35.561 35.7393 35.7266 35.5997 35.8661C35.4601 36.0055 35.2943 36.1161 35.112 36.1915C34.9296 36.2669 34.7342 36.3056 34.5369 36.3054H34.5338Z" fill="#A6A6A6"/>
</svg>

<svg width="49" height="49" fill="none" xmlns="http://www.w3.org/2000/svg"><rect y=".265" width="48.054" height="48.054" rx="24.027" fill="#DBDBDB"/><path d="M34.534 36.305c-12.811.018-22.534-9.82-22.52-22.52 0-.83.672-1.507 1.5-1.507h3.965c.744 0 1.376.547 1.486 1.283a18.644 18.644 0 0 0 1.524 5.101l.154.334a1.062 1.062 0 0 1-.345 1.309c-1.228.877-1.697 2.641-.74 4.017a17.768 17.768 0 0 0 4.439 4.44c1.377.956 3.141.487 4.017-.74a1.062 1.062 0 0 1 1.31-.347l.332.153a18.599 18.599 0 0 0 5.102 1.526c.735.11 1.282.742 1.282 1.487v3.963a1.503 1.503 0 0 1-1.503 1.501h-.003Z" fill="#A6A6A6"/></svg>
